X:1
T:Title
%%score { ( 1 4 ) | ( 2 3 ) }
L:1/8
M:6/8
K:Ab
V:1 treble nm="Grand Piano"
V:4 treble 
V:2 treble 
V:3 treble 
V:1
 z3 z2[Q:1/4=100] E | Ecc cdc | c3 B2 E | EBB BcB | [CA]3- [CA]2 E | EAc [ce][Bd]c | [Fd]3 F2 F | %7
 EGB dcB |[M:5/8] [CA]-[CA]- [CA]3 |[M:1/8] c |[M:3/4] c4 z2 | z F F F2 f | e4 z2 | c6 | z2 DD BA | %15
[M:15/16] G3/2- G3 z3 |[M:3/4] A6 |] %17
V:2
 z3 z2 [A,C] | [A,C][A,E][A,E] [A,E][A,F][K:bass][A,E] | [E,E]6 | %3
 [E,G,D][E,G,D][E,G,D] [E,G,D][E,G,E][E,G,D] | [A,,A,]3- [A,,A,]2[K:treble] [A,C] | %5
 [A,C][A,CE][A,EA] [A,E][A,E][A,A] | z3 D2 [D,A,D] | [E,G,B,][E,G,E][E,G,E] [E,B,E][E,A,E][E,G,D] | %8
[M:5/8] [A,,A,]-[A,,A,]- [A,,A,]3 |[M:1/8] z |[M:3/4] z2 [C,G,][C,G,] [C,C][C,C] | %11
 [F,CF][F,C] [F,C] .[F,C]3 | z2 [E,B,][E,B,] [E,E][E,E] | [A,EA][A,E] [A,E] .[A,E]3 | %14
 z2[K:bass] [D,A,][D,A,] z2 |[M:15/16] z [E,B,]/-[E,B,]/[E,B,][E,B,]3/2 z3 | %16
[M:3/4] z [A,,E,] [A,,F,] [A,,E,]3 |] %17
V:3
 x6 | x5[K:bass] x | A,3 G,2 [E,G,] | x6 | x5[K:treble] x | x6 | [D,A,]6 | x6 |[M:5/8] x5 | %9
[M:1/8] x |[M:3/4] x6 | x6 | x6 | x6 | x2[K:bass] x4 |[M:15/16] x15/2 |[M:3/4] x6 |] %17
V:4
 x6 | x6 | x6 | x6 | x6 | x6 | x6 | x6 |[M:5/8] x5 |[M:1/8] x |[M:3/4] z2 =EE [EG][EB] | A6 | %12
 z2 GG [GB][Gd] | z A A A2 A/G/ | F4 z2 |[M:15/16] z D/-D/DD3/2cB-<B |[M:3/4] z C D C3 |] %17

